assets/svg/calculator.svg

<svg width="62" height="70" viewBox="0 0 62 70" fill="none" xmlns="http://www.w3.org/2000/svg">
<path d="M5.03388 21.8326H41.8358C42.1376 21.8323 42.4269 21.7122 42.6403 21.4989C42.8537 21.2855 42.9737 20.9962 42.974 20.6944V6.59892C42.9737 6.29715 42.8537 6.00784 42.6403 5.79446C42.4269 5.58108 42.1376 5.46105 41.8358 5.46071H5.03388C4.73212 5.46105 4.4428 5.58108 4.22942 5.79446C4.01604 6.00784 3.89601 6.29715 3.89567 6.59892V20.6944C3.89601 20.9962 4.01604 21.2855 4.22942 21.4989C4.4428 21.7122 4.73212 21.8323 5.03388 21.8326ZM5.60299 7.16803H41.2667V20.1253H5.60299V7.16803Z" fill="#6ABF16"/>
<path d="M47.0475 36.9438V3.82083C47.0488 2.81017 46.649 1.84029 45.936 1.12399C45.223 0.407691 44.255 0.00346575 43.2444 0H3.80319C2.79255 0.0035033 1.82455 0.407741 1.11157 1.12403C0.398582 1.84033 -0.00117149 2.81018 2.57886e-06 3.82083V66.1484C-0.00117149 67.1591 0.398582 68.1289 1.11157 68.8452C1.82455 69.5615 2.79255 69.9658 3.80319 69.9693H43.2444C43.28 69.969 43.3156 69.9666 43.3509 69.962C43.7264 69.9863 44.105 70 44.4864 70C53.8475 70 61.4634 62.5431 61.4634 53.3774C61.4634 45.0639 55.1978 38.1565 47.0475 36.9438ZM3.80319 68.2619C3.24519 68.259 2.71115 68.0348 2.31824 67.6386C1.92532 67.2423 1.70562 66.7064 1.70732 66.1484V3.82083C1.70562 3.26283 1.92532 2.72693 2.31824 2.3307C2.71115 1.93448 3.24519 1.71029 3.80319 1.70732H43.2444C43.8024 1.71029 44.3364 1.93448 44.7293 2.3307C45.1222 2.72693 45.3419 3.26283 45.3402 3.82083V36.7757C45.0574 36.762 44.7728 36.755 44.4866 36.7548C44.0271 36.7548 43.5722 36.7728 43.1217 36.8086V26.2324C43.1216 25.9276 43.0006 25.6354 42.7852 25.4197C42.5699 25.2041 42.2779 25.0827 41.9731 25.0821H4.48498C4.18022 25.0826 3.88813 25.204 3.67277 25.4197C3.45742 25.6353 3.33639 25.9276 3.33624 26.2324V64.6754C3.33636 64.9802 3.45736 65.2725 3.67272 65.4882C3.88808 65.7039 4.1802 65.8253 4.48498 65.8259H28.498C28.6851 65.8946 28.8905 65.8946 29.0776 65.8259H33.25C34.3676 66.794 35.6063 67.6128 36.935 68.2617L3.80319 68.2619ZM17.1127 64.1189V56.2776H27.7692C27.9239 57.1336 28.1473 57.9757 28.4372 58.7959C28.2877 58.8635 28.1608 58.9727 28.0717 59.1106C27.9827 59.2484 27.9352 59.409 27.9351 59.5731V64.1184L17.1127 64.1189ZM5.04356 64.1189V56.2776H15.4054V64.1189H5.04356ZM28.4907 26.7894V34.851H17.1127V26.7894H28.4907ZM41.4145 26.7894V34.851H30.1977V26.7894H41.4145ZM27.5094 53.3774C27.5094 53.7785 27.5249 54.1762 27.5535 54.5703H17.1127V46.2696H28.4904V47.809C27.8402 49.5935 27.5082 51.4782 27.5094 53.3774ZM5.04356 36.5584H15.4054V44.5623H5.04356V36.5584ZM5.04356 46.2696H15.4054V54.5703H5.04356V46.2696ZM17.1127 44.5623V36.5584H28.4904V44.5623H17.1127ZM15.4054 34.851H5.04356V26.7894H15.4054V34.851ZM29.6417 61.435C30.185 62.3901 30.8213 63.2892 31.5413 64.1193H29.6417V61.435ZM30.1977 44.41V36.5584H41.4143V37.0279C39.142 37.4341 36.9761 38.2979 35.0479 39.5668C33.1198 40.8358 31.4696 42.4834 30.1977 44.4096V44.41ZM44.4864 68.2927C36.0667 68.2927 29.2168 61.6017 29.2168 53.3774C29.2168 45.1531 36.0671 38.4622 44.4864 38.4622C52.9058 38.4622 59.7561 45.1531 59.7561 53.3774C59.7561 61.6017 52.9062 68.2927 44.4864 68.2927Z" fill="#6ABF16"/>
<path d="M45.5867 44.8598V43.6447C45.5867 43.4183 45.4967 43.2012 45.3366 43.0411C45.1765 42.881 44.9594 42.7911 44.733 42.7911C44.5066 42.7911 44.2895 42.881 44.1294 43.0411C43.9693 43.2012 43.8793 43.4183 43.8793 43.6447V44.8616C43.0155 44.9745 42.2107 45.3613 41.583 45.9654C40.3058 47.2102 40.2305 48.9553 40.2379 49.4604C40.2664 51.4221 41.7567 53.0774 43.8617 53.4857L44.0528 53.5231C44.2123 53.5543 44.4072 53.5925 44.527 53.6153C44.6002 53.6295 44.771 53.6803 44.862 53.7075C44.8929 53.7168 44.9232 53.7278 44.9528 53.7405C44.9641 53.7453 44.9754 53.75 44.987 53.7547L45.2805 53.8666C45.3098 53.8777 45.3386 53.8904 45.3665 53.9046C45.5078 53.9757 45.5424 53.9963 45.6451 54.0559C45.6878 54.0804 45.7377 54.1097 45.7981 54.1441L45.8324 54.1658C45.8418 54.1719 45.8526 54.1786 45.8647 54.1858C46.1737 54.3724 47.7185 55.3765 47.7801 56.8416C47.817 57.7181 47.5912 58.3878 47.0899 58.8891C46.399 59.58 45.2291 59.8527 44.3764 59.8171C42.5784 59.7416 41.5167 58.2831 41.4273 57.4878C41.4156 57.3758 41.3818 57.2673 41.3279 57.1684C41.2739 57.0695 41.201 56.9823 41.1133 56.9118C41.0255 56.8412 40.9247 56.7887 40.8165 56.7573C40.7084 56.7259 40.5951 56.7162 40.4833 56.7287C40.3714 56.7413 40.263 56.7758 40.1646 56.8304C40.0661 56.885 39.9794 56.9585 39.9094 57.0467C39.8395 57.135 39.7877 57.2362 39.757 57.3445C39.7263 57.4529 39.7174 57.5662 39.7307 57.678C39.9781 59.8844 42.1709 61.226 43.8792 61.4808V62.5181C43.8792 62.7445 43.9691 62.9616 44.1292 63.1217C44.2893 63.2818 44.5064 63.3718 44.7328 63.3718C44.9593 63.3718 45.1764 63.2818 45.3365 63.1217C45.4966 62.9616 45.5865 62.7445 45.5865 62.5181V61.4305C46.528 61.262 47.5365 60.857 48.2973 60.0963C49.1313 59.2623 49.5424 58.1119 49.4859 56.7699C49.3903 54.4964 47.3741 53.1034 46.7435 52.7222C46.7337 52.716 46.6724 52.6778 46.6607 52.6709C46.5927 52.6322 46.5433 52.6034 46.5023 52.5797C46.3811 52.5092 46.315 52.4714 46.1383 52.3819C46.057 52.3407 45.9737 52.3038 45.8886 52.2714L45.61 52.1652C45.5256 52.1297 45.4394 52.0987 45.3517 52.0723C45.1692 52.0178 44.9932 51.9665 44.846 51.9384C44.7286 51.9161 44.5372 51.8787 44.3809 51.8479L44.1869 51.8101C42.6576 51.5135 41.9589 50.404 41.9448 49.4361C41.9348 48.7502 42.1475 47.7999 42.7744 47.1881C43.2738 46.7015 43.9953 46.4735 44.9182 46.5109C47.4508 46.6132 48.0312 48.7438 48.0577 48.8466C48.1124 49.0653 48.2513 49.2535 48.4442 49.3701C48.6371 49.4868 48.8682 49.5224 49.0873 49.4692C49.3063 49.416 49.4955 49.2784 49.6134 49.0863C49.7313 48.8942 49.7685 48.6632 49.7168 48.4438C49.4566 47.5067 48.9261 46.6671 48.1916 46.0296C47.4571 45.3922 46.551 44.9853 45.5867 44.8598Z" fill="#6ABF16"/>
</svg>

<svg width="62" height="70" fill="none" xmlns="http://www.w3.org/2000/svg"><path d="M5.034 21.833h36.802a1.14 1.14 0 001.138-1.139V6.6a1.14 1.14 0 00-1.138-1.138H5.034a1.14 1.14 0 00-1.138 1.138v14.095a1.14 1.14 0 001.138 1.139zm.569-14.665h35.664v12.957H5.603V7.168z" fill="#6ABF16"/><path d="M47.047 36.944V3.82A3.816 3.816 0 0043.245 0H3.804A3.816 3.816 0 000 3.82v62.328a3.816 3.816 0 003.803 3.821h39.441a.882.882 0 00.107-.007c.375.024.754.038 1.135.038 9.361 0 16.977-7.457 16.977-16.623 0-8.313-6.265-15.22-14.416-16.433zM3.803 68.262a2.107 2.107 0 01-2.096-2.114V3.821a2.107 2.107 0 012.096-2.114h39.441a2.107 2.107 0 012.096 2.114v32.955a17.222 17.222 0 00-2.219.033V26.232a1.15 1.15 0 00-1.148-1.15H4.485a1.15 1.15 0 00-1.149 1.15v38.443a1.151 1.151 0 001.149 1.15h24.013a.84.84 0 00.58 0h4.172a17.068 17.068 0 003.685 2.437H3.803zm13.31-4.143v-7.841h10.656c.155.856.378 1.698.668 2.518a.854.854 0 00-.502.777v4.545H17.113zm-12.07 0v-7.841h10.362v7.84H5.044zm23.448-37.33v8.062H17.113v-8.062H28.49zm12.923 0v8.062H30.198v-8.062h11.216zM27.51 53.377c0 .401.016.8.044 1.193h-10.44v-8.3H28.49v1.539a16.236 16.236 0 00-.98 5.568zM5.044 36.558h10.361v8.004H5.044v-8.004zm0 9.712h10.361v8.3H5.044v-8.3zm12.069-1.708v-8.004H28.49v8.004H17.113zm-1.708-9.711H5.044v-8.062h10.361v8.062zm14.237 26.584c.543.955 1.18 1.854 1.9 2.684h-1.9v-2.684zm.556-17.025v-7.852h11.216v.47a17.034 17.034 0 00-11.216 7.382zm14.288 23.883c-8.42 0-15.27-6.691-15.27-14.916 0-8.224 6.851-14.915 15.27-14.915 8.42 0 15.27 6.691 15.27 14.915 0 8.225-6.85 14.916-15.27 14.916z" fill="#6ABF16"/><path d="M45.587 44.86v-1.215a.854.854 0 00-1.708 0v1.217c-.863.112-1.668.5-2.296 1.103-1.277 1.245-1.352 2.99-1.345 3.495.028 1.962 1.519 3.617 3.624 4.026l.19.037c.16.031.355.07.475.092.073.014.244.065.335.093a.856.856 0 01.125.047l.294.112c.029.01.058.023.086.038.14.07.175.091.278.15l.153.09.034.02c.01.007.02.014.033.02.309.187 1.853 1.191 1.915 2.657.037.876-.189 1.546-.69 2.047-.691.691-1.86.964-2.714.928-1.798-.075-2.86-1.534-2.949-2.33a.852.852 0 10-1.696.191c.247 2.206 2.44 3.548 4.148 3.803v1.037a.854.854 0 101.708 0v-1.087c.941-.169 1.95-.574 2.71-1.335.834-.834 1.245-1.984 1.189-3.326-.096-2.274-2.112-3.667-2.742-4.048a7.795 7.795 0 00-.083-.051l-.159-.091a5.772 5.772 0 00-.364-.198 2.595 2.595 0 00-.25-.11l-.278-.107a2.597 2.597 0 00-.258-.093 5.518 5.518 0 00-.506-.134l-.465-.09-.194-.038c-1.53-.297-2.228-1.406-2.242-2.374-.01-.686.203-1.636.83-2.248.499-.486 1.22-.715 2.143-.677a3.273 3.273 0 013.14 2.336.854.854 0 001.659-.403 4.95 4.95 0 00-4.13-3.584z" fill="#6ABF16"/></svg>
